<?xml version="1.0" encoding="UTF-8"?>
<map version="1.10" tiledversion="1.10.2" orientation="orthogonal" renderorder="right-down" width="31" height="64" tilewidth="16" tileheight="16" infinite="0" nextlayerid="3" nextobjectid="108">
 <tileset firstgid="1" name="tiles" tilewidth="16" tileheight="16" tilecount="20" columns="10">
  <image source="tiles.png" width="160" height="32"/>
 </tileset>
 <layer id="1" name="floor" width="31" height="64">
  <data encoding="csv">
0,0,0,0,0,0,0,0,0,0,0,0,0,0,0,0,0,0,0,0,0,0,0,0,0,0,0,0,0,0,0,
0,0,0,0,0,0,0,0,0,0,0,0,0,0,0,0,0,0,0,0,0,0,0,0,0,0,0,0,0,0,0,
0,0,0,0,0,0,0,0,0,0,0,0,0,0,0,0,0,0,0,0,0,0,0,0,0,0,0,0,0,0,0,
0,0,0,0,0,0,0,0,0,0,0,0,0,0,0,0,0,0,0,0,0,0,0,0,0,0,0,0,0,0,0,
0,0,0,0,0,0,0,0,0,0,0,0,0,0,0,0,0,0,0,0,0,0,0,0,0,0,0,0,0,0,0,
0,0,0,0,0,0,0,0,0,0,0,0,0,0,0,0,0,0,0,0,0,0,0,0,0,0,0,0,0,0,0,
0,0,0,0,0,0,0,0,0,0,0,0,0,0,0,0,0,0,0,0,0,0,0,0,0,0,0,0,0,0,0,
0,0,0,0,0,0,0,0,0,0,0,0,0,0,0,0,0,0,0,0,0,0,0,0,0,0,0,0,0,0,0,
0,0,0,0,0,0,0,0,0,0,0,0,0,0,0,0,0,0,0,0,0,0,0,0,0,0,0,0,0,0,0,
0,0,0,0,0,0,0,0,0,0,0,0,0,0,0,0,0,0,0,0,0,0,0,0,0,0,0,0,0,0,0,
0,0,0,0,0,0,0,0,0,0,0,0,15,15,15,15,15,15,15,0,0,0,0,0,0,0,0,0,0,0,0,
0,0,0,0,0,0,0,0,0,0,0,0,0,0,0,0,0,0,0,0,0,0,0,0,0,0,0,0,0,0,0,
0,0,0,0,0,0,0,0,0,0,0,0,0,0,0,0,0,0,0,0,0,0,0,0,0,0,0,0,0,0,0,
0,0,0,0,0,0,0,0,0,0,0,0,0,0,0,0,0,0,0,0,0,0,0,0,0,0,0,0,0,0,0,
0,0,0,0,0,0,0,0,0,0,0,0,0,0,0,0,0,0,0,0,0,0,0,0,0,0,0,0,0,0,0,
0,0,0,0,0,0,0,0,0,0,0,0,0,0,0,0,0,0,0,0,0,0,0,0,0,0,0,0,0,0,0,
0,0,0,0,0,0,0,0,0,0,0,0,0,0,0,0,0,0,0,0,0,0,0,0,0,0,0,0,0,0,0,
0,0,0,0,0,0,0,0,0,0,0,0,0,0,0,0,0,0,0,0,0,0,0,0,0,0,0,0,0,0,0,
0,0,0,0,0,0,0,0,0,0,0,0,0,0,0,0,0,0,0,0,0,0,0,0,0,0,0,0,0,0,0,
0,0,0,0,0,0,0,0,0,0,0,0,0,0,0,0,0,0,0,0,0,0,0,0,0,0,0,0,0,0,0,
0,0,0,0,0,0,0,0,0,0,0,0,0,0,0,0,0,0,0,0,0,0,0,0,0,0,0,0,0,0,0,
0,0,0,0,0,0,0,0,0,0,0,0,0,0,0,0,0,0,0,0,0,0,0,0,0,0,0,0,0,0,0,
0,0,0,0,0,0,0,0,0,0,0,0,0,0,0,0,0,0,0,0,0,0,0,0,0,0,0,0,0,0,0,
0,0,0,0,0,0,0,0,15,15,0,0,0,0,15,15,15,0,0,0,0,15,15,0,0,0,0,0,0,0,0,
0,0,0,0,0,0,0,0,0,0,0,0,0,0,0,0,0,0,0,0,0,0,0,0,0,0,0,0,0,0,0,
0,0,0,0,0,0,0,0,0,0,0,0,0,0,0,0,0,0,0,0,0,0,0,0,0,0,0,0,0,0,0,
0,0,0,0,0,0,0,0,0,0,0,0,0,0,0,0,0,0,0,0,0,0,0,0,0,0,0,0,0,0,0,
0,0,0,0,0,0,0,0,0,0,0,0,0,0,0,0,0,0,0,0,0,0,0,0,0,0,0,0,0,0,0,
0,0,0,0,0,0,0,0,0,0,0,0,0,0,0,0,0,0,0,0,0,0,0,0,0,0,0,0,0,0,0,
0,0,0,0,0,0,0,0,0,0,0,0,0,0,0,0,0,0,0,0,0,0,0,0,0,0,0,0,0,0,0,
0,0,0,0,0,0,0,0,0,0,0,0,0,0,0,0,0,0,0,0,0,0,0,0,0,0,0,0,0,0,0,
0,0,0,0,0,0,0,0,0,0,0,0,0,0,0,0,0,0,0,0,0,0,0,0,0,0,0,0,0,0,0,
0,0,0,0,0,0,0,0,0,0,0,0,0,0,0,0,0,0,0,0,0,0,0,0,0,0,0,0,0,0,0,
0,0,0,0,0,0,15,15,15,15,15,15,15,0,0,0,0,0,15,15,15,15,15,15,15,0,0,0,0,0,0,
0,0,0,0,0,0,0,0,0,0,0,0,0,0,0,0,0,0,0,0,0,0,0,0,0,0,0,0,0,0,0,
0,0,0,0,0,0,0,0,0,0,0,0,0,0,0,0,0,0,0,0,0,0,0,0,0,0,0,0,0,0,0,
0,0,0,0,0,0,0,0,0,0,0,0,0,0,0,0,0,0,0,0,0,0,0,0,0,0,0,0,0,0,0,
0,0,0,0,0,0,0,0,0,0,0,0,0,0,0,0,0,0,0,0,0,0,0,0,0,0,0,0,0,0,0,
0,0,0,0,0,0,0,0,0,0,0,0,0,0,0,0,0,0,0,0,0,0,0,0,0,0,0,0,0,0,0,
0,0,0,0,0,0,0,0,0,0,0,0,0,0,0,0,0,0,0,0,0,0,0,0,0,0,0,0,0,0,0,
0,0,0,0,0,0,0,0,0,0,0,0,0,0,0,0,0,0,0,0,0,0,0,0,0,0,0,0,0,0,0,
0,0,0,0,0,0,0,0,0,0,0,0,0,0,0,0,0,0,0,0,0,0,0,0,0,0,0,0,0,0,0,
0,0,0,15,0,0,0,0,0,0,0,0,0,0,0,0,0,0,0,0,0,0,0,0,0,0,0,15,0,0,0,
0,0,0,0,0,0,0,0,0,0,0,0,0,0,0,0,0,0,0,0,0,0,0,0,0,0,0,0,0,0,0,
0,0,0,0,0,0,0,0,0,0,0,0,0,0,0,0,0,0,0,0,0,0,0,0,0,0,0,0,0,0,0,
0,0,0,0,0,0,0,0,0,0,0,0,0,0,15,15,15,0,0,0,0,0,0,0,0,0,0,0,0,0,0,
0,0,0,0,0,0,0,0,0,0,0,0,0,0,0,0,0,0,0,0,0,0,0,0,0,0,0,0,0,0,0,
0,0,0,0,0,0,0,0,0,0,0,0,0,0,0,0,0,0,0,0,0,0,0,0,0,0,0,0,0,0,0,
0,0,0,0,0,0,0,0,0,0,0,0,0,0,0,0,0,0,0,0,0,0,0,0,0,0,0,0,0,0,0,
0,0,0,0,0,0,0,0,0,0,0,0,0,0,0,0,0,0,0,0,0,0,0,0,0,0,0,0,0,0,0,
0,0,15,15,15,0,0,0,0,0,0,0,0,0,0,0,0,0,0,0,0,0,0,0,0,0,15,15,15,0,0,
0,0,0,0,0,0,0,0,0,0,0,0,0,0,0,0,0,0,0,0,0,0,0,0,0,0,0,0,0,0,0,
0,0,0,0,0,0,0,0,0,0,0,0,0,0,0,0,0,0,0,0,0,0,0,0,0,0,0,0,0,0,0,
0,0,0,0,0,0,0,0,0,0,0,0,0,0,0,0,0,0,0,0,0,0,0,0,0,0,0,0,0,0,0,
0,0,0,0,0,0,0,0,0,0,0,0,0,0,0,0,0,0,0,0,0,0,0,0,0,0,0,0,0,0,0,
0,0,0,0,0,0,0,0,0,0,0,0,0,0,0,0,0,0,0,0,0,0,0,0,0,0,0,0,0,0,0,
0,0,0,0,0,0,0,0,0,0,0,0,0,0,0,0,0,0,0,0,0,0,0,0,0,0,0,0,0,0,0,
0,0,0,0,0,0,0,0,0,0,0,0,0,0,0,0,0,0,0,0,0,0,0,0,0,0,0,0,0,0,0,
0,0,0,0,0,0,0,0,0,0,0,0,0,0,0,0,0,0,0,0,0,0,0,0,0,0,0,0,0,0,0,
0,0,0,0,0,0,0,0,0,0,0,0,0,0,0,0,0,0,0,0,0,0,0,0,0,0,0,0,0,0,0,
0,0,0,0,15,2,3,4,2,3,4,2,3,4,2,3,4,2,3,4,2,3,4,2,3,4,15,0,0,0,0,
0,0,0,0,15,1,1,1,1,1,1,1,1,1,1,1,1,1,1,1,1,1,1,1,1,1,15,0,0,0,0,
0,0,0,0,15,1,1,1,1,1,1,1,1,1,1,1,1,1,1,1,1,1,1,1,1,1,15,0,0,0,0,
0,0,0,0,15,1,1,1,1,1,1,1,1,1,1,1,1,1,1,1,1,1,1,1,1,1,15,0,0,0,0
</data>
 </layer>
 <objectgroup id="2" name="obstacles">
  <object id="1" gid="17" x="240" y="960" width="16" height="16"/>
  <object id="2" gid="16" x="240" y="960" width="16" height="16"/>
  <object id="3" gid="7" x="320" y="960" width="16" height="16"/>
  <object id="4" gid="7" x="160" y="960" width="16" height="16"/>
  <object id="5" gid="12" x="112" y="528" width="16" height="16">
   <properties>
    <property name="targetX" value="12"/>
   </properties>
  </object>
  <object id="6" gid="12" x="368" y="528" width="16" height="16">
   <properties>
    <property name="targetX" value="20"/>
   </properties>
  </object>
  <object id="7" gid="11" x="240" y="160" width="16" height="16"/>
  <object id="8" gid="14" x="416" y="240" width="16" height="16"/>
  <object id="9" gid="14" x="400" y="240" width="16" height="16"/>
  <object id="10" gid="14" x="368" y="240" width="16" height="16"/>
  <object id="11" gid="14" x="384" y="240" width="16" height="16"/>
  <object id="12" gid="14" x="432" y="240" width="16" height="16"/>
  <object id="13" gid="14" x="112" y="240" width="16" height="16"/>
  <object id="15" gid="14" x="96" y="240" width="16" height="16"/>
  <object id="16" gid="14" x="80" y="240" width="16" height="16"/>
  <object id="17" gid="14" x="64" y="240" width="16" height="16"/>
  <object id="18" gid="14" x="48" y="240" width="16" height="16"/>
  <object id="19" gid="14" x="352" y="240" width="16" height="16"/>
  <object id="20" gid="14" x="128" y="240" width="16" height="16"/>
  <object id="22" gid="14" x="208" y="320" width="16" height="16"/>
  <object id="23" gid="14" x="224" y="320" width="16" height="16"/>
  <object id="24" gid="14" x="240" y="320" width="16" height="16"/>
  <object id="25" gid="14" x="256" y="320" width="16" height="16"/>
  <object id="26" gid="14" x="272" y="320" width="16" height="16"/>
  <object id="27" gid="7" x="224" y="304" width="16" height="16"/>
  <object id="28" gid="7" x="256" y="304" width="16" height="16"/>
  <object id="29" gid="6" x="416" y="224" width="16" height="16"/>
  <object id="30" gid="6" x="368" y="224" width="16" height="16"/>
  <object id="31" gid="6" x="64" y="224" width="16" height="16"/>
  <object id="32" gid="6" x="112" y="224" width="16" height="16"/>
  <object id="33" gid="14" x="208" y="464" width="16" height="16"/>
  <object id="34" gid="14" x="272" y="464" width="16" height="16"/>
  <object id="35" gid="14" x="400" y="464" width="16" height="16"/>
  <object id="37" gid="14" x="80" y="464" width="16" height="16"/>
  <object id="38" gid="7" x="400" y="448" width="16" height="16"/>
  <object id="39" gid="7" x="80" y="448" width="16" height="16"/>
  <object id="40" gid="6" x="208" y="448" width="16" height="16"/>
  <object id="41" gid="6" x="272" y="448" width="16" height="16"/>
  <object id="42" gid="6" x="144" y="528" width="16" height="16"/>
  <object id="43" gid="6" x="336" y="528" width="16" height="16"/>
  <object id="44" gid="13" x="48" y="672" width="16" height="16"/>
  <object id="45" gid="13" x="432" y="672" width="16" height="16"/>
  <object id="46" gid="13" x="240" y="720" width="16" height="16"/>
  <object id="50" gid="14" x="352" y="640" width="16" height="16"/>
  <object id="51" gid="14" x="128" y="640" width="16" height="16"/>
  <object id="54" gid="7" x="128" y="624" width="16" height="16"/>
  <object id="55" gid="7" x="352" y="624" width="16" height="16"/>
  <object id="56" gid="14" x="240" y="816" width="16" height="16"/>
  <object id="57" gid="8" x="240" y="800" width="16" height="16"/>
  <object id="58" gid="14" x="352" y="864" width="16" height="16"/>
  <object id="59" gid="14" x="368" y="864" width="16" height="16"/>
  <object id="60" gid="14" x="144" y="864" width="16" height="16"/>
  <object id="61" gid="14" x="128" y="864" width="16" height="16"/>
  <object id="62" gid="7" x="368" y="848" width="16" height="16"/>
  <object id="63" gid="7" x="128" y="848" width="16" height="16"/>
  <object id="64" gid="6" x="352" y="848" width="16" height="16"/>
  <object id="65" gid="6" x="144" y="848" width="16" height="16"/>
  <object id="69" gid="14" x="368" y="128" width="16" height="16"/>
  <object id="70" gid="14" x="112" y="128" width="16" height="16"/>
  <object id="71" gid="6" x="112" y="112" width="16" height="16"/>
  <object id="72" gid="6" x="368" y="112" width="16" height="16"/>
  <object id="73" gid="7" x="16" y="976" width="16" height="16"/>
  <object id="74" gid="7" x="464" y="976" width="16" height="16"/>
  <object id="75" gid="5" x="128" y="368" width="16" height="16"/>
  <object id="76" gid="5" x="144" y="368" width="16" height="16"/>
  <object id="77" gid="5" x="336" y="368" width="16" height="16"/>
  <object id="78" gid="5" x="352" y="368" width="16" height="16"/>
  <object id="79" gid="14" x="288" y="464" width="16" height="16"/>
  <object id="80" gid="14" x="192" y="464" width="16" height="16"/>
  <object id="83" gid="14" x="304" y="688" width="16" height="16"/>
  <object id="84" gid="14" x="176" y="688" width="16" height="16"/>
  <object id="88" gid="14" x="240" y="608" width="16" height="16"/>
  <object id="89" gid="5" x="32" y="800" width="16" height="16"/>
  <object id="90" gid="5" x="448" y="800" width="16" height="16"/>
  <object id="91" gid="13" x="192" y="960" width="16" height="16"/>
  <object id="92" gid="13" x="288" y="960" width="16" height="16"/>
  <object id="93" gid="6" x="240" y="592" width="16" height="16"/>
  <object id="94" gid="6" x="176" y="672" width="16" height="16"/>
  <object id="96" gid="6" x="304" y="672" width="16" height="16"/>
  <object id="97" gid="6" x="64" y="800" width="16" height="16"/>
  <object id="98" gid="6" x="416" y="800" width="16" height="16"/>
  <object id="99" gid="5" x="384" y="960" width="16" height="16"/>
  <object id="100" gid="5" x="400" y="960" width="16" height="16"/>
  <object id="101" gid="5" x="80" y="960" width="16" height="16"/>
  <object id="102" gid="5" x="96" y="960" width="16" height="16"/>
  <object id="104" gid="6" x="432" y="656" width="16" height="16"/>
  <object id="105" gid="6" x="48" y="656" width="16" height="16"/>
  <object id="106" gid="7" x="448" y="752" width="16" height="16"/>
  <object id="107" gid="7" x="32" y="752" width="16" height="16"/>
 </objectgroup>
</map>
